src/lib/packages/icons/src/assets/line/dribbble.svg

<svg width="24" height="24" viewBox="0 0 24 24" fill="none" xmlns="http://www.w3.org/2000/svg">
<path d="M19.79 4.60001C17.77 2.47001 14.93 1.25 12 1.25C10.56 1.25 9.18001 1.53001 7.89001 2.07001C7.89001 2.07001 7.89001 2.07001 7.88 2.07001C4.27 3.56001 1.77002 6.9 1.33002 10.75C1.33002 10.75 1.33002 10.75 1.33002 10.76C1.28002 11.14 1.25 11.54 1.25 11.98C1.25 14.9 2.39998 17.63 4.47998 19.65C6.49998 21.63 9.17 22.73 12 22.73C13.5 22.73 14.94 22.43 16.28 21.84C19.97 20.23 22.43 16.75 22.7 12.77C22.72 12.52 22.73 12.26 22.73 11.99C22.73 9.23001 21.68 6.6 19.77 4.59L19.79 4.60001ZM14.72 11.51C14.47 10.89 14.2 10.26 13.89 9.64C15.83 8.73 17.6 7.57 19.17 6.17C20.45 7.74 21.17 9.68001 21.23 11.71C19.11 11.17 16.87 11.1 14.71 11.51H14.72ZM18.14 5.09C16.67 6.39 15.01 7.48001 13.2 8.32001C12.16 6.44001 10.92 4.70001 9.47998 3.10001C10.29 2.87001 11.13 2.74001 12 2.74001C14.26 2.74001 16.45 3.59 18.14 5.09ZM7.98999 3.69C9.47999 5.27 10.76 7.02 11.81 8.91C9.01 9.97 6.08001 10.41 2.95001 10.18C3.51001 7.34999 5.36998 4.95 7.97998 3.69H7.98999ZM2.76001 11.67C3.35001 11.72 3.93 11.75 4.5 11.75C7.26 11.75 9.95001 11.23 12.51 10.24C12.78 10.78 13.02 11.33 13.25 11.88C9.86 12.86 6.89997 15.01 4.90997 17.94C3.50997 16.28 2.75 14.21 2.75 12.01C2.75 11.9 2.75 11.79 2.75 11.68L2.76001 11.67ZM5.98999 19.01C7.80999 16.22 10.58 14.18 13.77 13.28C14.6 15.66 15.08 18.13 15.19 20.66C14.18 21.04 13.11 21.24 11.99 21.24C9.75999 21.24 7.65998 20.44 5.97998 19L5.98999 19.01ZM16.65 19.98C16.49 17.57 16.01 15.21 15.24 12.94C17.21 12.61 19.23 12.72 21.14 13.25C20.76 16.08 19.12 18.55 16.65 19.98Z" fill="currentColor"/>
</svg>

<svg xmlns="http://www.w3.org/2000/svg" width="24" height="24" fill="none"><path fill="currentColor" d="M19.79 4.6A10.782 10.782 0 0 0 12 1.25c-1.44 0-2.82.28-4.11.82h-.01a10.714 10.714 0 0 0-6.55 8.68v.01c-.05.38-.08.78-.08 1.22 0 2.92 1.15 5.65 3.23 7.67A10.69 10.69 0 0 0 12 22.73c1.5 0 2.94-.3 4.28-.89 3.69-1.61 6.15-5.09 6.42-9.07a10.704 10.704 0 0 0-2.93-8.18l.02.01Zm-5.07 6.91c-.25-.62-.52-1.25-.83-1.87 1.94-.91 3.71-2.07 5.28-3.47 1.28 1.57 2 3.51 2.06 5.54-2.12-.54-4.36-.61-6.52-.2h.01Zm3.42-6.42a20.44 20.44 0 0 1-4.94 3.23A28.141 28.141 0 0 0 9.48 3.1 9.19 9.19 0 0 1 12 2.74c2.26 0 4.45.85 6.14 2.35ZM7.99 3.69c1.49 1.58 2.77 3.33 3.82 5.22-2.8 1.06-5.73 1.5-8.86 1.27a9.188 9.188 0 0 1 5.03-6.49h.01Zm-5.23 7.98c.59.05 1.17.08 1.74.08 2.76 0 5.45-.52 8.01-1.51.27.54.51 1.09.74 1.64-3.39.98-6.35 3.13-8.34 6.06a9.13 9.13 0 0 1-2.16-5.93v-.33l.01-.01Zm3.23 7.34a13.77 13.77 0 0 1 7.78-5.73 25.74 25.74 0 0 1 1.42 7.38c-1.01.38-2.08.58-3.2.58-2.23 0-4.33-.8-6.01-2.24l.01.01Zm10.66.97c-.16-2.41-.64-4.77-1.41-7.04 1.97-.33 3.99-.22 5.9.31a9.145 9.145 0 0 1-4.49 6.73Z"/></svg>
